!!!COA:	Josquin des Prez
!!!CDT:	~1450-1521/08/27
!!!OTL@@LAT: Ave maris stella
!!!OTL2@@LAT: Virgo singularis
!!!AGN:	Motet
!!!SCT:	NJE 23.8
!!!SCA:	New Josquin Edition 23.8
!!!voices:	4
**kern	**kern	**kern	**kern
*staff4	*staff3	*staff2	*staff1
*Ivox	*Ivox	*Ivox	*Ivox
*I"Bassus	*I"Tenor	*I"Altus	*I"Superius
*I'B	*I'T	*I'A	*I'S
*>[A,B]	*>[A,B]	*>[A,B]	*>[A,B]
*>Part1[A]	*>Part1[A]	*>Part1[A]	*>Part1[A]
*>Part2[B]	*>Part2[B]	*>Part2[B]	*>Part2[B]
*clefF4	*clefGv2	*clefG2	*clefG2
*>A	*>A	*>A	*>A
*k[b-]	*k[b-]	*k[b-]	*k[b-]
*M2/1	*M2/1	*M2/1	*M2/1
*met(C|)	*met(C|)	*met(C|)	*met(C|)
!!section: Prima pars
!!!OMD: Prima pars
=1-	=1-	=1-	=1-
0r	0r	1r	1g
.	.	1g	1dd
=2	=2	=2	=2
0r	0r	1dd	1r
.	.	1r	1g
=3	=3	=3	=3
0r	0r	1g	1dd
.	.	[1dd	1r
=4	=4	=4	=4
0r	0r	2dd\]	1g
.	.	2cc\	.
.	.	2b-\	1dd
.	.	2a/	.
=5	=5	=5	=5
0r	0r	2g/	2dd\
.	.	2f/	2dd\
.	.	1e	1cc
=6	=6	=6	=6
1r	1G	1d	[0dd
1G	1d	1r	.
=7	=7	=7	=7
!!linebreak:default
1d	1r	0r	0dd]
1r	1G	.	.
=8	=8	=8	=8
1G	1d	0r	0r
[1d	1r	.	.
=9	=9	=9	=9
2d\]	1G	0r	0r
2c\	.	.	.
2B-\	1d	.	.
2A\	.	.	.
=10	=10	=10	=10
2G\	2d\	0r	0r
2F\	2d\	.	.
1E	1c	.	.
=11	=11	=11	=11
[0D	[0d	0r	0r
=12	=12	=12	=12
0D]	0d]	0r	1r
.	.	.	1dd
=13	=13	=13	=13
0r	0r	1g	1dd
.	.	2g/	2.g/
.	.	2c/	.
.	.	.	4a/
=14	=14	=14	=14
!!linebreak:default
0r	0r	2g/	2b-\
.	.	4c/	1cc
.	.	4d/	.
.	.	4e/	.
.	.	4f/	.
.	.	[2g/	2b-\
=15	=15	=15	=15
1r	1d	2g/]	1a
.	.	2f#i/	.
1G	1d	[1g	1g
=16	=16	=16	=16
2G\	2.G/	0g_	0r
2C/	.	.	.
.	4A/	.	.
2G\	2B-\	.	.
4C/	[2c\	.	.
4D\	.	.	.
=17	=17	=17	=17
4E\	2c\]	1g]	0r
4F\	.	.	.
1G	2B-\	.	.
.	1A	1r	.
2F#i\	.	.	.
=18	=18	=18	=18
1G	2G/	0r	1r
.	1B-	.	.
1B-	.	.	1dd
.	2G/	.	.
=19	=19	=19	=19
2G\	2B-\	0r	2dd\
2.B-\	2G/	.	2.dd\
.	2.B-\	.	.
4A\	.	.	4cc\
[2G\	.	.	[2b-\
.	4c\	.	.
=20	=20	=20	=20
4G\]	1d	0r	4b-\]
4F\	.	.	4a/
2D\	.	.	2f/
1E	1G	.	1g
=21	=21	=21	=21
!!pagebreak:default
1D	0r	2r	1f
.	.	1f	.
1d	.	.	1ff
.	.	2d/	.
=22	=22	=22	=22
2d\	0r	2.f/	2dd\
2.d\	.	.	2.ff\
.	.	4g/	.
.	.	2a/	.
4c\	.	.	4ee\
[2B-\	.	[2b-\	[2dd\
=23	=23	=23	=23
4B-\]	0r	4b-\]	4dd\]
4A\	.	4a/	4cc\
2F\	.	2a/	2a/
1G	.	1g	1b-
=24	=24	=24	=24
1D	1r	1f	0a
1r	1A	1r	.
=25	=25	=25	=25
1A	1c	0r	0r
1c	1A	.	.
=26	=26	=26	=26
1r	4B-\	0r	0r
.	4c\	.	.
.	4d\	.	.
.	4e\	.	.
1A	4f\	.	.
.	4g\	.	.
.	[2a\	.	.
=27	=27	=27	=27
2.B-\	4a\]	0r	0r
.	4g\	.	.
.	1g	.	.
4G\	.	.	.
1A	.	.	.
.	2f#i\	.	.
=28	=28	=28	=28
!!linebreak:default
1G	2g\	1d	0r
.	1d	.	.
1D	.	1f	.
.	[2f\	.	.
=29	=29	=29	=29
1F	2f\]	0r	1a
.	4e\	.	.
.	4d\	.	.
2F\	2c\	.	1cc
2F\	2A/	.	.
=30	=30	=30	=30
1G	4B-\	1r	1r
.	4c\	.	.
.	4d\	.	.
.	4e\	.	.
1D	4f\	2f/	1a
.	4g\	.	.
.	[2a\	2f/	.
=31	=31	=31	=31
0r	2a\]	1g	2.b-\
.	1g	.	.
.	.	.	4g/
.	.	1d	1a
.	2f#i\	.	.
=32	=32	=32	=32
0r	0g	0r	1g
.	.	.	1e
=33	=33	=33	=33
0r	0r	1e	1g
.	.	1g	1e
=34	=34	=34	=34
0r	0r	1r	4f/
.	.	.	4g/
.	.	.	4a/
.	.	.	4b-\
.	.	1e	4cc\
.	.	.	4dd\
.	.	.	[2ee\
=35	=35	=35	=35
!!linebreak:default
1D	0r	2f/	4ee\]
.	.	.	4dd\
.	.	2d/	1dd
1A	.	1e	.
.	.	.	2cc#i\
=36	=36	=36	=36
2B-\	1G	0d	0dd
2B-\	.	.	.
1B-	1d	.	.
=37	=37	=37	=37
0A	1e	0r	0r
.	1c	.	.
=38	=38	=38	=38
2r	2.d\	0r	0r
1B-	.	.	.
.	4e\	.	.
.	2f\	.	.
2G\	[2e\	.	.
=39	=39	=39	=39
2A\	2e\]	0r	1r
2F\	1d	.	.
1E	.	.	1g
.	2c#i\	.	.
=40	=40	=40	=40
0D	1d	1d	1dd
.	1r	1a	1r
=41	=41	=41	=41
0r	0r	2b-\	1g
.	.	2b-\	.
.	.	1b-	1dd
=42	=42	=42	=42
!!linebreak:default
0r	0r	0a	1ee
.	.	.	1cc
=43	=43	=43	=43
0r	0r	2r	2.dd\
.	.	1b-	.
.	.	.	4ee\
.	.	.	2ff\
.	.	2g/	[2ee\
=44	=44	=44	=44
1A	0r	2a/	4ee\]
.	.	.	4dd\
.	.	2f/	1dd
1A	.	1e	.
.	.	.	2cc#i\
=45	=45	=45	=45
1D	1d	1d	0dd
2.d\	1d	1r	.
4c\	.	.	.
=46	=46	=46	=46
4B-\	2.G/	0r	0r
4A\	.	.	.
1G	.	.	.
.	4A/	.	.
.	2B-\	.	.
4F#i\	2c\	.	.
4E\	.	.	.
=47	=47	=47	=47
1F#i	1A	1r	0r
1G	[1G	1dd	.
=48	=48	=48	=48
0r	1G]	1dd	1r
.	1r	1g	1dd
=49	=49	=49	=49
!!pagebreak:default
0r	0r	2.dd\	1dd
.	.	4cc\	.
.	.	4b-\	2.g/
.	.	4a/	.
.	.	[2g/	.
.	.	.	4a/
=50	=50	=50	=50
0r	0r	2g/]	2b-\
.	.	4f#i/	2cc\
.	.	4e/	.
.	.	1f#i	1a
=51	=51	=51	=51
0r	0r	[0g	1g
.	.	.	1r
=52	=52	=52	=52
1G	0B-	0g]	1b-
1G	.	.	1b-
=53	=53	=53	=53
2A\	1A	0r	2cc\
2F\	.	.	2a/
1E	1c	.	1g
=54	=54	=54	=54
1D	1d	0r	1f
1r	1d	.	1r
=55	=55	=55	=55
1G	0G	1g	0b-
1G	.	1g	.
=56	=56	=56	=56
!!linebreak:default
2F\	0r	2a/	1a
2D\	.	2f/	.
1A	.	1e	1cc
=57	=57	=57	=57
1D	0r	1d	1dd
1r	.	1r	1dd
=58	=58	=58	=58
1G	0B-	1b-	0g
1G	.	1b-	.
=59	=59	=59	=59
2A\	1A	2cc\	0r
2F\	.	2a/	.
1E	1c	1g	.
=60	=60	=60	=60
0D	1d	2.f/	0r
.	.	4g/	.
.	1d	2a/	.
.	.	[2b-\	.
=61	=61	=61	=61
0r	2.G/	4b-\]	0r
.	.	4a/	.
.	.	4g/	.
.	4A/	4f/	.
.	2B-\	2g/	.
.	2c\	[2a/	.
=62	=62	=62	=62
0r	2A/	4a/]	0r
.	.	4g/	.
.	2B-\	1f	.
.	1G	.	.
.	.	2e/	.
=63	=63	=63	=63
!!linebreak:default
1r	0F	1f	1a
1A	.	1r	2.cc\
.	.	.	4b-\
=64	=64	=64	=64
1c	0r	0r	2a/
.	.	.	2g/
1A	.	.	2f/
.	.	.	[2e/
=65	=65	=65	=65
2.B-\	0r	0r	4e/]
.	.	.	4d/
.	.	.	1g
4G\	.	.	.
1A	.	.	.
.	.	.	2f/
=66	=66	=66	=66
0G	0r	0r	1g
.	.	.	1d
=67	=67	=67	=67
0r	1r	1a	1f
.	1A	2.cc\	1r
.	.	4b-\	.
=68	=68	=68	=68
0r	1c	2a/	0r
.	.	2g/	.
.	1A	2f/	.
.	.	[2e/	.
=69	=69	=69	=69
1r	2.B-\	4e/]	0r
.	.	4d/	.
.	.	1g	.
.	4G/	.	.
1D	1A	.	.
.	.	2f#i/	.
=70	=70	=70	=70
!!linebreak:default
1d	1G	0g	0r
2r	1G	.	.
[2d\	.	.	.
=71	=71	=71	=71
4d\]	2d\	0r	0r
4c\	.	.	.
2.B-\	2d\	.	.
.	2d\	.	.
4A\	.	.	.
[2G\	[2d\	.	.
=72	=72	=72	=72
4G\]	2d\]	0r	0r
4F\	.	.	.
4E\	4c\	.	.
4D\	4B-\	.	.
1E	1c	.	.
=73	=73	=73	=73
2D\	0d	1r	0r
4d\	.	.	.
4c\	.	.	.
4B-\	.	1d	.
4A\	.	.	.
[2G\	.	.	.
=74	=74	=74	=74
2G\]	0r	1dd	1g
4F\	.	.	.
4E\	.	.	.
1D	.	2r	1dd
.	.	[2dd\	.
=75	=75	=75	=75
1r	0r	4dd\]	2r
.	.	4cc\	.
.	.	2.b-\	2dd\
1G	.	.	2dd\
.	.	4a/	.
.	.	[2g/	[2dd\
=76	=76	=76	=76
1B-	0r	4g/]	2dd\]
.	.	4f/	.
.	.	4e/	4cc\
.	.	4d/	4b-\
1A	.	1e	1cc
=77	=77	=77	=77
!!pagebreak:default
2D\	1r	1d	1dd
2d\	.	.	.
2G\	1d	1dd	1r
[2d\	.	.	.
=78	=78	=78	=78
4d\]	1d	2d/	1dd
4c\	.	.	.
2.B-\	.	2.dd\	.
.	2.G/	.	1dd
4A\	.	4cc\	.
[2G\	.	[2b-\	.
.	4A/	.	.
=79	=79	=79	=79
4G\]	2B-\	4b-\]	1g
4F\	.	4a/	.
4E\	2.c\	4g/	.
4D\	.	4f/	.
2C/	.	2e/	2.cc\
.	4B-\	.	.
[2F\	4A/	[2f/	.
.	4G/	.	4b-\
=80	=80	=80	=80
4F\]	2F/	4f/]	4a/
4G\	.	4e/	4g/
2E\	2G/	2c/	1g
1D	1A	1d	.
.	.	.	2f#i/
=81	=81	=81	=81
0r	1G	1dd	0g
.	1r	2dd\	.
.	.	[2dd\	.
=82	=82	=82	=82
1r	0B-	4dd\]	0r
.	.	4cc\	.
.	.	1b-	.
1G	.	.	.
.	.	4a/	.
.	.	4g/	.
=83	=83	=83	=83
2D\	1A	2f/	0r
1F	.	1a	.
.	1c	.	.
2C/	.	2g/	.
=84	=84	=84	=84
!!linebreak:default
2.G\	1d	2.b-\	1dd
8F\L	.	4a/	.
8E\J	.	.	.
1D	1d	4f/	1ff
.	.	4g/	.
.	.	4a/	.
.	.	4f/	.
=85	=85	=85	=85
1C	1G	2g/	1ee
.	.	2e/	.
1r	2A/	2.f/	2cc\
.	[2B-\	.	[2dd\
.	.	4d/	.
=86	=86	=86	=86
0r	4B-\]	2g/	4dd\]
.	4A/	.	4cc\
.	2F/	1f	2a/
.	1G	.	1b-
.	.	2e/	.
=87	=87	=87	=87
0r	1F	1f	0a
.	1r	1d	.
=88	=88	=88	=88
1D	0r	1.f	1r
[1F	.	.	1a
.	.	4e/	.
.	.	4d/	.
=89	=89	=89	=89
2F\]	1A	2c/	1.cc
4E\	.	2c/	.
4D\	.	.	.
2C/	[1c	1e	.
2D\	.	.	4b-\
.	.	.	4a/
=90	=90	=90	=90
1.E	2c\]	0e	2g/
.	4B-\	.	2g/
.	4A/	.	.
.	2G/	.	[1b-
4D\	2G/	.	.
4C/	.	.	.
=91	=91	=91	=91
!!linebreak:default
2.BB-/	1.B-	1d	2b-\]
.	.	.	4a/
4C/	.	.	4g/
4D\	.	1r	2f/
4E\	.	.	.
[2F\	4A/	.	[2a/
.	4G/	.	.
=92	=92	=92	=92
4F\]	2F/	0r	4a/]
4D\	.	.	4g/
2E\	2G/	.	1g
1D	1A	.	.
.	.	.	2f#i/
=93	=93	=93	=93
1r	1G	1g	0g
1G	1r	1g	.
=94	=94	=94	=94
1G	1G	1.dd	0r
1d	1G	.	.
.	.	4cc\	.
.	.	4b-\	.
=95	=95	=95	=95
2.D\	1.d	2a/	0r
.	.	2b-\	.
4E\	.	.	.
2F\	.	2a/	.
[2G\	4c\	[2b-\	.
.	4d\	.	.
=96	=96	=96	=96
4G\]	1e	4b-\]	1g
4F\	.	4a/	.
4E\	.	1g	.
4D\	.	.	.
1E	1c	.	1g
.	.	4f/	.
.	.	4e/	.
=97	=97	=97	=97
1D	2.d\	2f/	1.dd
.	.	2b-\	.
.	4e\	.	.
1r	2f\	2a/	.
.	[2g\	[2b-\	4cc\
.	.	.	4dd\
=98	=98	=98	=98
!!linebreak:default
0r	4g\]	4b-\]	1ee
.	4f\	4a/	.
.	4e\	4g/	.
.	4d\	4f/	.
.	1e	2.g/	1cc
.	.	4a/	.
=99	=99	=99	=99
0r	1d	4b-\	2.dd\
.	.	4a/	.
.	.	4b-\	.
.	.	4cc\	4ee\
.	1r	2dd\	2ff\
.	.	[2ee\	[2gg\
=100	=100	=100	=100
1A	0r	4ee\]	4gg\]
.	.	4dd\	4ff\
.	.	1dd	4ee\
.	.	.	4dd\
1A	.	.	1ee
.	.	2cc#i\	.
=101	=101	=101	=101
2F\	2r	1dd	1dd
2G\	1d	.	.
1E	.	1r	1g
.	2c\	.	.
=102	=102	=102	=102
2D\	1d	1a	4f/
.	.	.	4g/
2D\	.	.	4a/
.	.	.	4b-\
1A	1A	1a	4cc\
.	.	.	4dd\
.	.	.	[2ee\
=103	=103	=103	=103
2B-\	0r	2f/	4ee\]
.	.	.	4dd\
2G\	.	2g/	1dd
1A	.	1e	.
.	.	.	2cc#i\
=104	=104	=104	=104
2.D\	1d	4d/	1dd
.	.	4e/	.
.	.	4f/	.
4E\	.	4g/	.
2F\	1d	2a/	1r
[2G\	.	[2b-\	.
=105	=105	=105	=105
!!pagebreak:default
2G\]	2B-\	4b-\]	0r
.	.	4a/	.
2C/	2c\	1g	.
1D	1A	.	.
.	.	2f/	.
=106	=106	=106	=106
0r	2.G/	2g/	1dd
.	.	2.b-\	.
.	4A/	.	.
.	2B-\	.	1dd
.	.	4a/	.
.	4c\	[2g/	.
.	4d\	.	.
=107	=107	=107	=107
0r	3%2e	2g/]	2b-\
.	.	4f#i/	2cc\
.	3%2c	.	.
.	.	4e/	.
.	.	1f#i	1a
.	3%2d	.	.
=108	=108	=108	=108
0r	1G	0g	2g/
.	.	.	2dd\
.	1r	.	2dd\
.	.	.	2dd\
=109	=109	=109	=109
1BB-	0B-	2r	0ff
.	.	2d/	.
2BB-/	.	2d/	.
2BB-/	.	2d/	.
=110	=110	=110	=110
1D	1A	1f	0r
1C	1c	1e	.
=111	=111	=111	=111
1BB-	1d	4d/	2r
.	.	4e/	.
.	.	4f/	2ff\
.	.	4g/	.
1r	1d	2a/	2ff\
.	.	[2b-\	2ff\
=112	=112	=112	=112
!!linebreak:default
0r	2G/	2b-\]	2dd\
.	2.d\	4a/	2.ff\
.	.	4g/	.
.	.	2f/	.
.	4c\	.	4ee\
.	[2B-\	2g/	[2dd\
=113	=113	=113	=113
0r	4B-\]	1d	4dd\]
.	4A/	.	4cc\
.	4G/	.	4b-\
.	4F/	.	4a/
.	1G	1d	1b-
=114	=114	=114	=114
1D	1F	1.f	1a
[1F	1r	.	1a
.	.	4e/	.
.	.	4d/	.
=115	=115	=115	=115
2F\]	1G	1c	1.cc
4E\	.	.	.
4D\	.	.	.
1C	[1c	1r	.
.	.	.	4b-\
.	.	.	4a/
=116	=116	=116	=116
1r	1c]	1e	2g/
.	.	.	2g/
1G	1r	1g	2.b-\
.	.	.	4cc\
=117	=117	=117	=117
2D\	1A	1r	1a
2F\	.	.	.
2.C/	[1c	1e	2.g/
4D\	.	.	4f/
=118	=118	=118	=118
4E\	2c\]	1.g	4g/
4F\	.	.	4a/
2.G\	4B-\	.	1b-
.	4A/	.	.
.	2G/	.	.
4A\	.	.	.
[2B-\	2G/	4f/	4a/
.	.	4e/	4g/
=119	=119	=119	=119
!!linebreak:default
2B-\]	2.B-\	2d/	1f
4A\	.	2d/	.
4G\	4c\	.	.
2F\	1A	2.f/	1r
2D\	.	.	.
.	.	4g/	.
=120	=120	=120	=120
2E\	0G	1e	2.g/
2C/	.	.	.
.	.	.	4a/
1G	.	[1d	4b-\
.	.	.	4cc\
.	.	.	[2b-\
=121	=121	=121	=121
1r	1r	1d]	2b-\]
.	.	.	4a/
.	.	.	4g/
2D\	1A	1r	1a
2F\	.	.	.
=122	=122	=122	=122
2.C/	1.c	1e	2g/
.	.	.	2.g/
4D\	.	.	.
4E\	.	[1g	.
4F\	.	.	4a/
[2G\	4B-\	.	[2b-\
.	4A/	.	.
=123	=123	=123	=123
4G\]	2G/	2g/]	2b-\]
4A\	.	.	.
1B-	2G/	4f/	4a/
.	.	4e/	4g/
.	2.A/	2d/	1f
4A\	.	2d/	.
4G\	4B-\	.	.
=124	=124	=124	=124
2.F\	1A	2.f/	1r
4D\	.	4g/	.
2E\	[1Gl	1e	2.g/
2C/	.	.	.
.	.	.	4a/
=125	=125	=125	=125
[0Gl	0G_	[0dl	4b-\
.	.	.	4cc\
.	.	.	1b-
.	.	.	4a/
.	.	.	4g/
=126	=126	=126	=126
!!linebreak:default
0G]	0G]	0d]	0ddl
!!LO:LB:i:g=z
=127||	=127||	=127||	=127||
*>B	*>B	*>B	*>B
!!section: Secunda pars: Virgo singularis
!!!OMD: Secunda pars: Virgo singularis
0r	0r	1g	1r
.	.	1dd	1g
=128	=128	=128	=128
0r	0r	2r	1dd
.	.	2g/	.
.	.	2g/	2r
.	.	[2g/	2dd\
=129	=129	=129	=129
0r	0r	2g/]	2dd\
.	.	4f/	1dd
.	.	4e/	.
.	.	2f/	.
.	.	2g/	4cc\
.	.	.	4b-\
=130	=130	=130	=130
1r	0r	1e	1cc
1G	.	1d	[1dd
=131	=131	=131	=131
1d	1G	0r	1dd]
2r	1d	.	2r
2G\	.	.	2b-\
=132	=132	=132	=132
2G\	2r	0r	2b-\
1G	2d\	.	1b-
.	2d\	.	.
4F\	[2d\	.	4a/
4E\	.	.	4g/
=133	=133	=133	=133
!!pagebreak:default
2F\	2d\]	0r	2a/
2G\	4c\	.	2b-\
.	4B-\	.	.
1E	1c	.	1g
=134	=134	=134	=134
1D	[0d	1r	1f
1G	.	1g	1b-
=135	=135	=135	=135
1G	1d]	1g	1b-
1C	1r	1e	2.g/
.	.	.	4a/
=136	=136	=136	=136
1G	1d	2d/	1b-
.	.	4dd\	.
.	.	4cc\	.
2r	1d	4b-\	2r
.	.	4a/	.
[2G\	.	[2g/	[2b-\
=137	=137	=137	=137
2G\]	1G	4g/]	4b-\]
.	.	4f/	4a/
2G\	.	2d/	4g/
.	.	.	4f/
2C/	1c	1e	2g/
2C/	.	.	[2a/
=138	=138	=138	=138
1G	2.B-\	0d	4a/]
.	.	.	4g/
.	.	.	1g
.	4G/	.	.
1D	1A	.	.
.	.	.	2f#i/
=139	=139	=139	=139
0r	0G	2r	1g
.	.	2d/	.
.	.	2d/	1b-
.	.	2d/	.
=140	=140	=140	=140
!!linebreak:default
0r	0r	1f	1a
.	.	1e	1cc
=141	=141	=141	=141
2r	0B-	2d/	2.dd\
2BB-/	.	2f/	.
.	.	.	4cc\
2BB-/	.	2f/	4dd\
.	.	.	4ee\
2BB-/	.	2f/	[2ff\
=142	=142	=142	=142
1F	1A	1a	4ff\]
.	.	.	4ee\
.	.	.	4cc\
.	.	.	4dd\
1E	1c	1g	4ee\
.	.	.	4ff\
.	.	.	4gg\
.	.	.	4ee\
=143	=143	=143	=143
2.D\	1d	2.f/	2.ff\
4E\	.	4g/	4ee\
2F\	1d	2a/	1dd
[2G\	.	[2b-\	.
=144	=144	=144	=144
4G\]	2G/	4b-\]	0r
4F\	.	4a/	.
4E\	2.c\	4g/	.
4D\	.	4f/	.
1C	.	2e/	.
.	4B-\	.	.
.	4A/	[2a/	.
.	4G/	.	.
=145	=145	=145	=145
0r	2F/	4a/]	0r
.	.	4g/	.
.	2A/	1f	.
.	1G	.	.
.	.	2e/	.
=146	=146	=146	=146
1D	1F	1f	2r
.	.	.	1a
[1F	1r	1a	.
.	.	.	[2cc\
=147	=147	=147	=147
!!linebreak:default
1F]	1A	1cc	2cc\]
.	.	.	4b-\
.	.	.	4a/
2E-\	1c	1r	2g/
2C/	.	.	[2a/
=148	=148	=148	=148
1E-i	2B-\	1r	4a/]
.	.	.	4g/
.	2G/	.	1g
1D	1A	1a	.
.	.	.	2f#i/
=149	=149	=149	=149
0r	1G	2.b-\	2g/
.	.	.	4d/
.	.	4g/	4e/
.	1r	1a	4f#i/
.	.	.	4g/
.	.	.	4a/
.	.	.	4f#i/
=150	=150	=150	=150
0r	0r	1g	1g
.	.	1g	1r
=151	=151	=151	=151
0r	0r	1dd	1g
.	.	1d	1dd
=152	=152	=152	=152
1D	0r	2.f/	2dd\
.	.	.	2dd\
.	.	4d/	.
1A	.	1e	1cc
=153	=153	=153	=153
2r	1G	1d	1dd
1B-	.	.	.
.	1d	2r	1r
2B-\	.	2d/	.
=154	=154	=154	=154
!!linebreak:default
1B-	2d\	2.f/	0r
.	2d\	.	.
.	.	4d/	.
1A	1c	1e	.
=155	=155	=155	=155
2r	0d	1d	1ff
2d\	.	.	.
2D\	.	1a	2ff\
[2d\	.	.	[2ff\
=156	=156	=156	=156
4d\]	1r	2d/	4ff\]
4c\	.	.	4ee\
1B-	.	2f/	1dd
.	1d	2d/	.
4A\	.	[2f/	4cc\
4G\	.	.	4b-\
=157	=157	=157	=157
2F\	1d	4f/]	2a/
.	.	4e/	.
2G\	.	1d	2b-\
1E	1G	.	1g
.	.	2c/	.
=158	=158	=158	=158
[0D	2.A/	2d/	0f
.	.	2.a/	.
.	4G/	.	.
.	2A/	.	.
.	.	4g/	.
.	[2B-\	4f/	.
.	.	4e/	.
=159	=159	=159	=159
0D]	2B-\]	2d/	0r
.	4A/	1g	.
.	4G/	.	.
.	1A	.	.
.	.	2f#i/	.
=160	=160	=160	=160
1r	1G	1g	1r
[1G	1r	1r	1d
=161	=161	=161	=161
!!pagebreak:default
1G]	1B-	1g	1d
1D	1A	2.f/	[1a
.	.	4d/	.
=162	=162	=162	=162
1A	1c	1e	1a]
1B-	1d	1d	1f
=163	=163	=163	=163
0G	[0d	0g	0b-
=164	=164	=164	=164
0D	0d]	0f	0a
=165	=165	=165	=165
0r	2.G/	[0b-	2.dd\
.	4A/	.	4cc\
.	4B-\	.	4b-\
.	4c\	.	4a/
.	[2B-\	.	[2g/
=166	=166	=166	=166
0r	4B-\]	0b-]	4g/]
.	4A/	.	4f/
.	4G/	.	1f
.	4F/	.	.
.	1G	.	.
.	.	.	2e/
=167	=167	=167	=167
1D	1F	0a	0f
[1F	1r	.	.
=168	=168	=168	=168
!!linebreak:default
2F\]	1A	0r	0r
4E\	.	.	.
4D\	.	.	.
2.C/	1c	.	.
4D\	.	.	.
=169	=169	=169	=169
4E\	2B-\	0r	0r
4F\	.	.	.
1G	2G/	.	.
.	1A	.	.
2F#i\	.	.	.
=170	=170	=170	=170
1G	1G	1d	0r
1D	1r	[1f	.
=171	=171	=171	=171
0r	0r	2f/]	1a
.	.	4e/	.
.	.	4d/	.
.	.	2.c/	1cc
.	.	4d/	.
=172	=172	=172	=172
0r	0r	4e/	2b-\
.	.	4f/	.
.	.	1g	2g/
.	.	.	1a
.	.	2f#i/	.
=173	=173	=173	=173
1G	1r	0g	1g
2d\	1G	.	1r
2G\	.	.	.
=174	=174	=174	=174
2.B-\	2d\	0r	0r
.	2G/	.	.
4A\	.	.	.
4G\	2B-\	.	.
4F\	.	.	.
[2G\	4G/	.	.
.	4A/	.	.
=175	=175	=175	=175
!!linebreak:default
4G\]	4B-\	0r	0r
4F\	4c\	.	.
2D\	1d	.	.
1E	.	.	.
.	2c#i\	.	.
=176	=176	=176	=176
1D	1d	1d	1r
1r	1r	2dd\	1g
.	.	2g/	.
=177	=177	=177	=177
0r	0r	2.b-\	2dd\
.	.	.	2g/
.	.	4a/	.
.	.	4g/	2dd\
.	.	4f/	.
.	.	[2g/	4g/
.	.	.	4a/
=178	=178	=178	=178
0r	0r	4g/]	4b-\
.	.	4f/	4cc\
.	.	2d/	1dd
.	.	1e	.
.	.	.	2cc#i\
=179	=179	=179	=179
1d	1r	1d	1dd
2d\	1d	2r	1r
4G\	.	[2d/	.
4A\	.	.	.
=180	=180	=180	=180
4B-\	1d	4d/]	1dd
4c\	.	4e/	.
1d	.	4f/	.
.	.	8e/L	.
.	.	8f/J	.
.	1G	1g	1dd
2G\	.	.	.
=181	=181	=181	=181
2r	2.c\	2e/	1g
2.c\	.	2e/	.
.	4B-\	.	.
.	4A/	[1c	2.cc\
4B-\	4G/	.	.
4A\	[2F/	.	.
4G\	.	.	4b-\
=182	=182	=182	=182
!!linebreak:default
2F\	2F/]	1c]	4a/
.	.	.	4g/
2E\	2G/	.	1g
1D	1A	1d	.
.	.	.	2f#i/
=183	=183	=183	=183
0r	0G	2r	1g
.	.	2d/	.
.	.	2d/	1b-
.	.	2d/	.
=184	=184	=184	=184
0r	0r	2.f/	1a
.	.	4g/	.
.	.	1a	1cc
=185	=185	=185	=185
2r	0B-	2d/	2dd\
2D\	.	2f/	2d/
2D\	.	2f/	2d/
2D\	.	2f/	2d/
=186	=186	=186	=186
2.F\	1A	1f	1a
4G\	.	.	.
1A	1c	1e	1a
=187	=187	=187	=187
0D	1d	1d	0f
.	1d	1r	.
=188	=188	=188	=188
2r	2.G/	0r	0r
2.G\	.	.	.
.	4A/	.	.
.	2B-\	.	.
4F\	.	.	.
4E\	[2c\	.	.
4D\	.	.	.
=189	=189	=189	=189
!!pagebreak:default
2C/	2c\]	1r	0r
1F	4B-\	.	.
.	4A/	.	.
.	1G	1g	.
2E\	.	.	.
=190	=190	=190	=190
2F\	1F	1a	2r
2D\	.	.	1a
2.F\	1A	2.a/	.
.	.	.	[2cc\
4E\	.	4g/	.
=191	=191	=191	=191
2C/	2.c\	2e/	4cc\]
.	.	.	4b-\
2.E\	.	2.g/	2g/
.	4B-\	.	.
.	2G/	.	2.b-\
4D\	.	4f/	.
4BB-/	[2B-\	2d/	.
4C/	.	.	4a/
=192	=192	=192	=192
4D\	4B-\]	2.f/	4f/
4E\	4A/	.	4g/
1F	4F/	.	4a/
.	4G/	4e/	4b-\
.	4A/	4c/	2cc\
.	4B-\	4d/	.
4E\	[2c\	4e/	4c/
4D\	.	4f/	4d/
=193	=193	=193	=193
2C/	4c\]	2g/	4e/
.	4B-\	.	4f/
2E\	2G/	2c/	1g
1D	1A	[1d	.
.	.	.	2f#i/
=194	=194	=194	=194
2r	1G	0d]	2g/
2.B-\	.	.	2.dd\
.	2r	.	.
4A\	.	.	4cc\
[2G\	4G/	.	[2b-\
.	4A/	.	.
=195	=195	=195	=195
4G\]	4B-\	2r	4b-\]
4F\	4c\	.	4a/
4E\	1d	1b-	4g/
4D\	.	.	4f/
1E	.	.	1g
.	2c\	4a/	.
.	.	4g/	.
=196	=196	=196	=196
!!linebreak:default
[0D;l	2d\	2b-\	[0f;l
.	2.f\	2.a/	.
.	4e\	4g/	.
.	[2d\	4f/	.
.	.	4e/	.
=197	=197	=197	=197
0D_	4d\]	[0d;l	0f_
.	4c\	.	.
.	4B-\	.	.
.	4A/	.	.
.	1B-	.	.
=198	=198	=198	=198
0D]	0A;	0d]	0f]
=199	=199	=199	=199
0Gl	0Gl	0dl	0gl
==	==	==	==
*-	*-	*-	*-
!!!RDF**kern: l=long note in original notation
!!!RDF**kern: i=musica ficta
!!!ENC:	Will Watson 15/09/2011
!!!END:	2011/09/15/
!!!EED:	Jesse Rodin
!!!EEV:	2011/10/18/
!!attribution-level: 3 (other)
!!!ONB:	Translated from MusicXML and edited on 2011/10/18/ by Craig Sapp
!!muse2ps: u^(2) @{OTL2}^C^@{COA}?\n@{SCT}^v90,90,90,90,90,120i2I150c80Q16
